X: 130029
M: 2/4
L: 1/16
K: D
(FE) :|\
d2B2 A2F2 | B2E2E2 (FE) |\
e2d2c2B2 |[1 A^GAB AGFE :|\
[2 A4- A2 ||\
uE2 |\
c2AA d2AA | e2AA f2AA |\
g2f2e2d2 | c2B2A2G2 ||\
vB2e2 e^def | e2B2 B4 |\
vA2d2 dcde | f2d2 dcde |\
f2z2 a2z2 | d6- d2 & d2(cB) AGFE |]


